src/icons/svg/ModelFile.svg

<!-- Generated by IcoMoon.io -->
<svg version="1.1" xmlns="http://www.w3.org/2000/svg" width="30" height="24" viewBox="0 0 30 24">
<title>model-file</title>
<path fill="#444" d="M26.25 0h-22.5c-2.063 0-3.75 1.35-3.75 3v18c0 1.65 1.688 3 3.75 3h22.5c2.062 0 3.75-1.35 3.75-3v-18c0-1.65-1.688-3-3.75-3zM25.89 13.5h-21.75v-3h21.75v3zM18.39 19.5h-14.25v-3h14.25v3zM25.89 7.5h-21.75v-3h21.75v3z"></path>
</svg>

<svg width="30" height="24" viewBox="0 0 30 24" fill="none" xmlns="http://www.w3.org/2000/svg">
<path d="M26.25 0H3.75C1.687 0 0 1.35 0 3V21C0 22.65 1.688 24 3.75 24H26.25C28.312 24 30 22.65 30 21V3C30 1.35 28.312 0 26.25 0ZM25.89 13.5H4.14V10.5H25.89V13.5ZM18.39 19.5H4.14V16.5H18.39V19.5ZM25.89 7.5H4.14V4.5H25.89V7.5Z" fill="#1C2125"/>
</svg>
